Newaita-dark/apps/24/window-duplicate.svg

<?xml version="1.0" encoding="UTF-8"?>
<svg xmlns="http://www.w3.org/2000/svg" xmlns:xlink="http://www.w3.org/1999/xlink" width="24pt" height="24pt" viewBox="0 0 24 24" version="1.1">
<defs>
<linearGradient id="linear0" gradientUnits="userSpaceOnUse" x1="254" y1="233.5" x2="254" y2="254.666672" gradientTransform="matrix(0.0468795,0,0,0.0468795,-0.0000028613,10.079087)">
<stop offset="0" style="stop-color:rgb(0%,0%,0%);stop-opacity:0.27451;"/>
<stop offset="1" style="stop-color:rgb(0%,0%,0%);stop-opacity:0;"/>
</linearGradient>
<radialGradient id="radial0" gradientUnits="userSpaceOnUse" cx="450.908936" cy="189.579361" fx="450.908936" fy="189.579361" r="21.166656" gradientTransform="matrix(0.000000130628,-0.0585994,-0.105479,-0.0000000761539,40.090268,47.696498)">
<stop offset="0" style="stop-color:rgb(0%,0%,0%);stop-opacity:0.313725;"/>
<stop offset="0.222222" style="stop-color:rgb(0%,0%,0%);stop-opacity:0.27451;"/>
<stop offset="1" style="stop-color:rgb(0%,0%,0%);stop-opacity:0;"/>
</radialGradient>
<radialGradient id="radial1" gradientUnits="userSpaceOnUse" cx="450.908936" cy="189.579361" fx="450.908936" fy="189.579361" r="21.166656" gradientTransform="matrix(-0.000000130628,0.0585994,0.105479,0.0000000761539,-16.275496,-5.645611)">
<stop offset="0" style="stop-color:rgb(0%,0%,0%);stop-opacity:0.313725;"/>
<stop offset="0.222222" style="stop-color:rgb(0%,0%,0%);stop-opacity:0.27451;"/>
<stop offset="1" style="stop-color:rgb(0%,0%,0%);stop-opacity:0;"/>
</radialGradient>
<radialGradient id="radial2" gradientUnits="userSpaceOnUse" cx="450.908936" cy="189.579361" fx="450.908936" fy="189.579361" r="21.166656" gradientTransform="matrix(-0.000000130628,-0.0585994,0.105479,-0.0000000761539,-16.275496,47.696498)">
<stop offset="0" style="stop-color:rgb(0%,0%,0%);stop-opacity:0.313725;"/>
<stop offset="0.222222" style="stop-color:rgb(0%,0%,0%);stop-opacity:0.27451;"/>
<stop offset="1" style="stop-color:rgb(0%,0%,0%);stop-opacity:0;"/>
</radialGradient>
<radialGradient id="radial3" gradientUnits="userSpaceOnUse" cx="450.908936" cy="189.579361" fx="450.908936" fy="189.579361" r="21.166656" gradientTransform="matrix(0.000000130628,0.0585994,-0.105479,0.0000000761539,40.090267,-5.645611)">
<stop offset="0" style="stop-color:rgb(0%,0%,0%);stop-opacity:0.313725;"/>
<stop offset="0.222222" style="stop-color:rgb(0%,0%,0%);stop-opacity:0.27451;"/>
<stop offset="1" style="stop-color:rgb(0%,0%,0%);stop-opacity:0;"/>
</radialGradient>
<linearGradient id="linear1" gradientUnits="userSpaceOnUse" x1="306.916656" y1="-25.791676" x2="305.954559" y2="-135.329163" gradientTransform="matrix(0.0565122,0,0,0.163059,-4.39051,25.231011)">
<stop offset="0" style="stop-color:rgb(74.117647%,74.117647%,74.117647%);stop-opacity:1;"/>
<stop offset="1" style="stop-color:rgb(87.843137%,87.843137%,87.843137%);stop-opacity:1;"/>
</linearGradient>
<linearGradient id="linear2" gradientUnits="userSpaceOnUse" x1="349.25" y1="233.5" x2="349.25" y2="11.25" gradientTransform="matrix(1,0,0,1,0,0)">
<stop offset="0" style="stop-color:rgb(74.117647%,74.117647%,74.117647%);stop-opacity:1;"/>
<stop offset="1" style="stop-color:rgb(87.843137%,87.843137%,87.843137%);stop-opacity:1;"/>
</linearGradient>
<linearGradient id="linear3" gradientUnits="userSpaceOnUse" x1="306.916656" y1="-25.791676" x2="305.954559" y2="-135.329163" gradientTransform="matrix(4.556143,0,0,13.146184,-353.972656,2034.180176)">
<stop offset="0" style="stop-color:rgb(25.882353%,25.882353%,25.882353%);stop-opacity:1;"/>
<stop offset="1" style="stop-color:rgb(38.039216%,38.039216%,38.039216%);stop-opacity:1;"/>
</linearGradient>
<linearGradient id="linear4" gradientUnits="userSpaceOnUse" x1="1320" y1="1695.118164" x2="1320" y2="855.118103" gradientTransform="matrix(1,0,0,1,0,0)">
<stop offset="0" style="stop-color:rgb(25.882353%,25.882353%,25.882353%);stop-opacity:1;"/>
<stop offset="1" style="stop-color:rgb(38.039216%,38.039216%,38.039216%);stop-opacity:1;"/>
</linearGradient>
<linearGradient id="linear5" gradientUnits="userSpaceOnUse" x1="349.25" y1="-158.083328" x2="349.25" y2="-115.75" gradientTransform="matrix(0.749999,0,0,0.749999,71.437767,-2.479259)">
<stop offset="0" style="stop-color:rgb(40%,73.333333%,41.568627%);stop-opacity:1;"/>
<stop offset="1" style="stop-color:rgb(50.588235%,78.039216%,51.764706%);stop-opacity:1;"/>
</linearGradient>
<linearGradient id="linear6" gradientUnits="userSpaceOnUse" x1="349.25" y1="-158.083328" x2="349.25" y2="-115.75" gradientTransform="matrix(0.750001,0,0,0.750001,124.353661,-2.47902)">
<stop offset="0" style="stop-color:rgb(100%,83.529412%,30.980392%);stop-opacity:1;"/>
<stop offset="1" style="stop-color:rgb(100%,87.843137%,50.980392%);stop-opacity:1;"/>
</linearGradient>
<linearGradient id="linear7" gradientUnits="userSpaceOnUse" x1="349.25" y1="-158.083328" x2="349.25" y2="-115.75" gradientTransform="matrix(0.75,0,0,0.75,177.270798,-2.479186)">
<stop offset="0" style="stop-color:rgb(89.803922%,45.098039%,45.098039%);stop-opacity:1;"/>
<stop offset="1" style="stop-color:rgb(93.72549%,60.392157%,60.392157%);stop-opacity:1;"/>
</linearGradient>
<linearGradient id="linear8" gradientUnits="userSpaceOnUse" x1="349.25" y1="-158.083328" x2="349.25" y2="-115.75" gradientTransform="matrix(0.5,0,0,0.5,201.08342,111.458298)">
<stop offset="0" style="stop-color:rgb(40%,73.333333%,41.568627%);stop-opacity:1;"/>
<stop offset="1" style="stop-color:rgb(50.588235%,78.039216%,51.764706%);stop-opacity:1;"/>
</linearGradient>
<linearGradient id="linear9" gradientUnits="userSpaceOnUse" x1="349.25" y1="-158.083328" x2="349.25" y2="-115.75" gradientTransform="matrix(0.5,0,0,0.5,238.125137,111.458267)">
<stop offset="0" style="stop-color:rgb(100%,83.529412%,30.980392%);stop-opacity:1;"/>
<stop offset="1" style="stop-color:rgb(100%,87.843137%,50.980392%);stop-opacity:1;"/>
</linearGradient>
<linearGradient id="linear10" gradientUnits="userSpaceOnUse" x1="349.25" y1="-158.083328" x2="349.25" y2="-115.75" gradientTransform="matrix(0.5,0,0,0.5,275.166565,111.458344)">
<stop offset="0" style="stop-color:rgb(89.803922%,45.098039%,45.098039%);stop-opacity:1;"/>
<stop offset="1" style="stop-color:rgb(93.72549%,60.392157%,60.392157%);stop-opacity:1;"/>
</linearGradient>
</defs>
<g id="surface1">
<path style=" stroke:none;fill-rule:nonzero;fill:url(#linear0);" d="M 3.472656 21.027344 L 20.339844 21.027344 L 20.339844 22.019531 L 3.472656 22.019531 Z M 3.472656 21.027344 "/>
<path style=" stroke:none;fill-rule:nonzero;fill:url(#radial0);" d="M 20.339844 21.027344 L 22.328125 21.027344 L 22.328125 20.03125 L 20.339844 20.03125 Z M 20.339844 21.027344 "/>
<path style=" stroke:none;fill-rule:nonzero;fill:url(#radial1);" d="M 3.472656 21.027344 L 1.488281 21.027344 L 1.488281 22.019531 L 3.472656 22.019531 Z M 3.472656 21.027344 "/>
<path style=" stroke:none;fill-rule:nonzero;fill:url(#radial2);" d="M 3.472656 21.027344 L 1.488281 21.027344 L 1.488281 20.03125 L 3.472656 20.03125 Z M 3.472656 21.027344 "/>
<path style=" stroke:none;fill-rule:nonzero;fill:url(#radial3);" d="M 20.339844 21.027344 L 22.328125 21.027344 L 22.328125 22.019531 L 20.339844 22.019531 Z M 20.339844 21.027344 "/>
<path style=" stroke:none;fill-rule:nonzero;fill:url(#linear1);" d="M 2.480469 3.164062 L 21.335938 3.164062 C 21.882812 3.164062 22.328125 3.609375 22.328125 4.15625 L 22.328125 20.03125 C 22.328125 20.582031 21.882812 21.027344 21.335938 21.027344 L 2.480469 21.027344 C 1.933594 21.027344 1.488281 20.582031 1.488281 20.03125 L 1.488281 4.15625 C 1.488281 3.609375 1.933594 3.164062 2.480469 3.164062 Z M 2.480469 3.164062 "/>
<path style="fill-rule:nonzero;fill:url(#linear2);stroke-width:3;stroke-linecap:round;stroke-linejoin:round;stroke:rgb(12.941177%,12.941177%,12.941177%);stroke-opacity:1;stroke-miterlimit:4;" d="M 211.646455 11.228396 L 455.123205 11.228396 C 466.788757 11.228396 476.28785 20.727489 476.28785 32.393042 L 476.28785 212.292529 C 476.28785 224.041407 466.788757 233.5405 455.123205 233.5405 L 211.646455 233.5405 C 199.980903 233.5405 190.48181 224.041407 190.48181 212.292529 L 190.48181 32.393042 C 190.48181 20.727489 199.980903 11.228396 211.646455 11.228396 Z M 211.646455 11.228396 " transform="matrix(0.0468795,0,0,0.0468795,0,10.079087)"/>
<path style=" stroke:none;fill-rule:nonzero;fill:rgb(0%,0%,0%);fill-opacity:0.235294;" d="M 2.480469 21.035156 C 1.929688 21.035156 1.488281 20.59375 1.488281 20.042969 L 1.488281 19.785156 C 1.488281 20.335938 1.929688 20.777344 2.480469 20.777344 L 21.335938 20.777344 C 21.882812 20.777344 22.328125 20.335938 22.328125 19.785156 L 22.328125 20.042969 C 22.328125 20.59375 21.882812 21.035156 21.335938 21.035156 Z M 2.480469 21.035156 "/>
<path style="fill-rule:nonzero;fill:url(#linear3);stroke-width:11.338583;stroke-linecap:round;stroke-linejoin:miter;stroke:rgb(12.941177%,12.941177%,12.941177%);stroke-opacity:1;stroke-miterlimit:4;" d="M 199.980913 255.093763 C 155.575703 255.093763 119.988548 290.680918 119.988548 335.086129 L 119.988548 575.063225 L 1800.14315 575.063225 L 1800.14315 335.086129 C 1800.14315 290.680918 1764.241065 255.093763 1720.150785 255.093763 Z M 199.980913 255.093763 " transform="matrix(0.0124035,0,0,0.0124035,0,0)"/>
<path style=" stroke:none;fill-rule:nonzero;fill:rgb(100%,100%,100%);fill-opacity:0.392157;" d="M 2.480469 3.222656 C 1.929688 3.222656 1.488281 3.664062 1.488281 4.214844 L 1.488281 4.472656 C 1.488281 3.921875 1.929688 3.480469 2.480469 3.480469 L 21.335938 3.480469 C 21.882812 3.480469 22.328125 3.921875 22.328125 4.472656 L 22.328125 4.214844 C 22.328125 3.664062 21.882812 3.222656 21.335938 3.222656 Z M 2.480469 3.222656 "/>
<path style="fill-rule:nonzero;fill:url(#linear4);stroke-width:11.338583;stroke-linecap:round;stroke-linejoin:round;stroke:rgb(12.941177%,12.941177%,12.941177%);stroke-opacity:1;stroke-miterlimit:4;" d="M 799.923653 855.036503 C 755.833373 855.036503 719.931288 890.938588 719.931288 935.028869 L 719.931288 1095.013599 L 1800.14315 1095.013599 L 1800.14315 935.028869 C 1800.14315 890.938588 1764.241065 855.036503 1720.150785 855.036503 Z M 799.923653 855.036503 " transform="matrix(0.0124035,0,0,0.0124035,0,0)"/>
<path style=" stroke:none;fill-rule:nonzero;fill:rgb(12.941177%,12.941177%,12.941177%);fill-opacity:1;" d="M 2.480469 3.09375 C 1.894531 3.09375 1.417969 3.570312 1.417969 4.15625 L 1.417969 20.03125 C 1.417969 20.621094 1.894531 21.097656 2.480469 21.097656 L 21.335938 21.097656 C 21.921875 21.097656 22.398438 20.621094 22.398438 20.03125 L 22.398438 4.15625 C 22.398438 3.570312 21.921875 3.09375 21.335938 3.09375 Z M 2.480469 3.234375 L 21.335938 3.234375 C 21.847656 3.234375 22.257812 3.644531 22.257812 4.15625 L 22.257812 20.03125 C 22.257812 20.546875 21.847656 20.957031 21.335938 20.957031 L 2.480469 20.957031 C 1.96875 20.957031 1.558594 20.546875 1.558594 20.03125 L 1.558594 4.15625 C 1.558594 3.644531 1.96875 3.234375 2.480469 3.234375 Z M 2.480469 3.234375 "/>
<path style="fill-rule:nonzero;fill:url(#linear5);stroke-width:3;stroke-linecap:round;stroke-linejoin:miter;stroke:rgb(12.941177%,12.941177%,12.941177%);stroke-opacity:1;stroke-miterlimit:4;" d="M 333.38483 -121.008976 C 342.133995 -121.008976 349.216651 -113.926319 349.216651 -105.177154 C 349.216651 -96.42799 342.133995 -89.262007 333.38483 -89.262007 C 324.635666 -89.262007 317.469683 -96.42799 317.469683 -105.177154 C 317.469683 -113.926319 324.635666 -121.008976 333.38483 -121.008976 Z M 333.38483 -121.008976 " transform="matrix(0.0468795,0,0,0.0468795,0,10.079087)"/>
<path style="fill-rule:nonzero;fill:url(#linear6);stroke-width:3;stroke-linecap:round;stroke-linejoin:miter;stroke:rgb(12.941177%,12.941177%,12.941177%);stroke-opacity:1;stroke-miterlimit:4;" d="M 386.296444 -121.008976 C 395.045608 -121.008976 402.128265 -113.926319 402.128265 -105.177154 C 402.128265 -96.42799 395.045608 -89.262007 386.296444 -89.262007 C 377.547279 -89.262007 370.381297 -96.42799 370.381297 -105.177154 C 370.381297 -113.926319 377.547279 -121.008976 386.296444 -121.008976 Z M 386.296444 -121.008976 " transform="matrix(0.0468795,0,0,0.0468795,0,10.079087)"/>
<path style="fill-rule:nonzero;fill:url(#linear7);stroke-width:3;stroke-linecap:round;stroke-linejoin:miter;stroke:rgb(12.941177%,12.941177%,12.941177%);stroke-opacity:1;stroke-miterlimit:4;" d="M 439.208058 -121.008976 C 447.957222 -121.008976 455.123205 -113.926319 455.123205 -105.177154 C 455.123205 -96.42799 447.957222 -89.262007 439.208058 -89.262007 C 430.458893 -89.262007 423.292911 -96.42799 423.292911 -105.177154 C 423.292911 -113.926319 430.458893 -121.008976 439.208058 -121.008976 Z M 439.208058 -121.008976 " transform="matrix(0.0468795,0,0,0.0468795,0,10.079087)"/>
<path style="fill-rule:nonzero;fill:url(#linear8);stroke-width:3;stroke-linecap:round;stroke-linejoin:miter;stroke:rgb(12.941177%,12.941177%,12.941177%);stroke-opacity:1;stroke-miterlimit:4;" d="M 375.714121 32.393042 C 381.546897 32.393042 386.296444 37.142588 386.296444 42.975365 C 386.296444 48.808141 381.546897 53.557687 375.714121 53.557687 C 369.881345 53.557687 365.131798 48.808141 365.131798 42.975365 C 365.131798 37.142588 369.881345 32.393042 375.714121 32.393042 Z M 375.714121 32.393042 " transform="matrix(0.0468795,0,0,0.0468795,0,10.079087)"/>
<path style="fill-rule:nonzero;fill:url(#linear9);stroke-width:3;stroke-linecap:round;stroke-linejoin:miter;stroke:rgb(12.941177%,12.941177%,12.941177%);stroke-opacity:1;stroke-miterlimit:4;" d="M 412.710588 32.393042 C 418.62669 32.393042 423.292911 37.142588 423.292911 42.975365 C 423.292911 48.808141 418.62669 53.557687 412.710588 53.557687 C 406.877812 53.557687 402.128265 48.808141 402.128265 42.975365 C 402.128265 37.142588 406.877812 32.393042 412.710588 32.393042 Z M 412.710588 32.393042 " transform="matrix(0.0468795,0,0,0.0468795,0,10.079087)"/>
<path style="fill-rule:nonzero;fill:url(#linear10);stroke-width:3;stroke-linecap:round;stroke-linejoin:miter;stroke:rgb(12.941177%,12.941177%,12.941177%);stroke-opacity:1;stroke-miterlimit:4;" d="M 449.79038 32.393042 C 455.623157 32.393042 460.372703 37.142588 460.372703 42.975365 C 460.372703 48.808141 455.623157 53.557687 449.79038 53.557687 C 443.957604 53.557687 439.208058 48.808141 439.208058 42.975365 C 439.208058 37.142588 443.957604 32.393042 449.79038 32.393042 Z M 449.79038 32.393042 " transform="matrix(0.0468795,0,0,0.0468795,0,10.079087)"/>
</g>
</svg>

<svg xmlns="http://www.w3.org/2000/svg" width="32" height="32" viewBox="0 0 24 24"><defs><linearGradient id="a" gradientUnits="userSpaceOnUse" x1="254" y1="233.5" x2="254" y2="254.667" gradientTransform="matrix(.04688 0 0 .04688 0 10.08)"><stop offset="0" stop-opacity=".275"/><stop offset="1" stop-opacity="0"/></linearGradient><radialGradient id="b" gradientUnits="userSpaceOnUse" cx="450.909" cy="189.579" fx="450.909" fy="189.579" r="21.167" gradientTransform="matrix(0 -.0586 -.10548 0 40.09 47.696)"><stop offset="0" stop-opacity=".314"/><stop offset=".222" stop-opacity=".275"/><stop offset="1" stop-opacity="0"/></radialGradient><radialGradient id="c" gradientUnits="userSpaceOnUse" cx="450.909" cy="189.579" fx="450.909" fy="189.579" r="21.167" gradientTransform="matrix(0 .0586 .10548 0 -16.275 -5.646)"><stop offset="0" stop-opacity=".314"/><stop offset=".222" stop-opacity=".275"/><stop offset="1" stop-opacity="0"/></radialGradient><radialGradient id="d" gradientUnits="userSpaceOnUse" cx="450.909" cy="189.579" fx="450.909" fy="189.579" r="21.167" gradientTransform="matrix(0 -.0586 .10548 0 -16.275 47.696)"><stop offset="0" stop-opacity=".314"/><stop offset=".222" stop-opacity=".275"/><stop offset="1" stop-opacity="0"/></radialGradient><radialGradient id="e" gradientUnits="userSpaceOnUse" cx="450.909" cy="189.579" fx="450.909" fy="189.579" r="21.167" gradientTransform="matrix(0 .0586 -.10548 0 40.09 -5.646)"><stop offset="0" stop-opacity=".314"/><stop offset=".222" stop-opacity=".275"/><stop offset="1" stop-opacity="0"/></radialGradient><linearGradient id="f" gradientUnits="userSpaceOnUse" x1="306.917" y1="-25.792" x2="305.955" y2="-135.329" gradientTransform="matrix(.05651 0 0 .16306 -4.39 25.231)"><stop offset="0" stop-color="#bdbdbd"/><stop offset="1" stop-color="#e0e0e0"/></linearGradient><linearGradient id="g" gradientUnits="userSpaceOnUse" x1="349.25" y1="233.5" x2="349.25" y2="11.25"><stop offset="0" stop-color="#bdbdbd"/><stop offset="1" stop-color="#e0e0e0"/></linearGradient><linearGradient id="h" gradientUnits="userSpaceOnUse" x1="306.917" y1="-25.792" x2="305.955" y2="-135.329" gradientTransform="matrix(4.55614 0 0 13.14618 -353.973 2034.18)"><stop offset="0" stop-color="#424242"/><stop offset="1" stop-color="#616161"/></linearGradient><linearGradient id="i" gradientUnits="userSpaceOnUse" x1="1320" y1="1695.118" x2="1320" y2="855.118"><stop offset="0" stop-color="#424242"/><stop offset="1" stop-color="#616161"/></linearGradient><linearGradient id="j" gradientUnits="userSpaceOnUse" x1="349.25" y1="-158.083" x2="349.25" y2="-115.75" gradientTransform="matrix(.75 0 0 .75 71.438 -2.48)"><stop offset="0" stop-color="#66bb6a"/><stop offset="1" stop-color="#81c784"/></linearGradient><linearGradient id="k" gradientUnits="userSpaceOnUse" x1="349.25" y1="-158.083" x2="349.25" y2="-115.75" gradientTransform="matrix(.75 0 0 .75 124.354 -2.479)"><stop offset="0" stop-color="#ffd54f"/><stop offset="1" stop-color="#ffe082"/></linearGradient><linearGradient id="l" gradientUnits="userSpaceOnUse" x1="349.25" y1="-158.083" x2="349.25" y2="-115.75" gradientTransform="matrix(.75 0 0 .75 177.27 -2.48)"><stop offset="0" stop-color="#e57373"/><stop offset="1" stop-color="#ef9a9a"/></linearGradient><linearGradient id="m" gradientUnits="userSpaceOnUse" x1="349.25" y1="-158.083" x2="349.25" y2="-115.75" gradientTransform="matrix(.5 0 0 .5 201.083 111.458)"><stop offset="0" stop-color="#66bb6a"/><stop offset="1" stop-color="#81c784"/></linearGradient><linearGradient id="n" gradientUnits="userSpaceOnUse" x1="349.25" y1="-158.083" x2="349.25" y2="-115.75" gradientTransform="matrix(.5 0 0 .5 238.125 111.458)"><stop offset="0" stop-color="#ffd54f"/><stop offset="1" stop-color="#ffe082"/></linearGradient><linearGradient id="o" gradientUnits="userSpaceOnUse" x1="349.25" y1="-158.083" x2="349.25" y2="-115.75" gradientTransform="matrix(.5 0 0 .5 275.167 111.458)"><stop offset="0" stop-color="#e57373"/><stop offset="1" stop-color="#ef9a9a"/></linearGradient></defs><path d="M3.473 21.027H20.34v.993H3.473zm0 0" fill="url(#a)"/><path d="M20.34 21.027h1.988v-.996H20.34zm0 0" fill="url(#b)"/><path d="M3.473 21.027H1.488v.993h1.985zm0 0" fill="url(#c)"/><path d="M3.473 21.027H1.488v-.996h1.985zm0 0" fill="url(#d)"/><path d="M20.34 21.027h1.988v.993H20.34zm0 0" fill="url(#e)"/><path d="M2.48 3.164h18.856c.547 0 .992.445.992.992v15.875c0 .551-.445.996-.992.996H2.48a.994.994 0 0 1-.992-.996V4.156c0-.547.446-.992.992-.992zm0 0" fill="url(#f)"/><path d="M211.646 11.228h243.477c11.666 0 21.165 9.5 21.165 21.165v179.9c0 11.748-9.5 21.248-21.165 21.248H211.646c-11.665 0-21.164-9.5-21.164-21.248v-179.9c0-11.666 9.499-21.165 21.164-21.165zm0 0" transform="matrix(.04688 0 0 .04688 0 10.08)" fill="url(#g)" stroke-width="3" stroke-linecap="round" stroke-linejoin="round" stroke="#212121"/><path d="M2.48 21.035a.989.989 0 0 1-.992-.992v-.258c0 .55.442.992.992.992h18.856a.991.991 0 0 0 .992-.992v.258c0 .55-.445.992-.992.992zm0 0" fill-opacity=".235"/><path d="M199.98 255.094c-44.404 0-79.991 35.587-79.991 79.992v239.977h1680.154V335.086c0-44.405-35.902-79.992-79.992-79.992zm0 0" transform="scale(.0124)" fill="url(#h)" stroke-width="11.339" stroke-linecap="round" stroke="#212121"/><path d="M2.48 3.223a.989.989 0 0 0-.992.992v.258c0-.551.442-.993.992-.993h18.856c.547 0 .992.442.992.993v-.258a.991.991 0 0 0-.992-.992zm0 0" fill="#fff" fill-opacity=".392"/><path d="M799.924 855.037c-44.09 0-79.993 35.902-79.993 79.992v159.985h1080.212V935.029c0-44.09-35.902-79.992-79.992-79.992zm0 0" transform="scale(.0124)" fill="url(#i)" stroke-width="11.339" stroke-linecap="round" stroke-linejoin="round" stroke="#212121"/><path d="M2.48 3.094c-.585 0-1.062.476-1.062 1.062v15.875c0 .59.477 1.067 1.062 1.067h18.856c.586 0 1.062-.477 1.062-1.067V4.156c0-.586-.476-1.062-1.062-1.062zm0 .14h18.856c.512 0 .922.41.922.922v15.875a.92.92 0 0 1-.922.926H2.48a.92.92 0 0 1-.921-.926V4.156c0-.511.41-.922.921-.922zm0 0" fill="#212121"/><path d="M333.385-121.009c8.749 0 15.832 7.083 15.832 15.832s-7.083 15.915-15.832 15.915c-8.75 0-15.915-7.166-15.915-15.915 0-8.75 7.166-15.832 15.915-15.832zm0 0" transform="matrix(.04688 0 0 .04688 0 10.08)" fill="url(#j)" stroke-width="3" stroke-linecap="round" stroke="#212121"/><path d="M386.296-121.009c8.75 0 15.832 7.083 15.832 15.832s-7.082 15.915-15.832 15.915c-8.749 0-15.915-7.166-15.915-15.915 0-8.75 7.166-15.832 15.915-15.832zm0 0" transform="matrix(.04688 0 0 .04688 0 10.08)" fill="url(#k)" stroke-width="3" stroke-linecap="round" stroke="#212121"/><path d="M439.208-121.009c8.75 0 15.915 7.083 15.915 15.832s-7.166 15.915-15.915 15.915c-8.75 0-15.915-7.166-15.915-15.915 0-8.75 7.166-15.832 15.915-15.832zm0 0" transform="matrix(.04688 0 0 .04688 0 10.08)" fill="url(#l)" stroke-width="3" stroke-linecap="round" stroke="#212121"/><path d="M375.714 32.393c5.833 0 10.582 4.75 10.582 10.582 0 5.833-4.75 10.583-10.582 10.583-5.833 0-10.582-4.75-10.582-10.583 0-5.832 4.75-10.582 10.582-10.582zm0 0" transform="matrix(.04688 0 0 .04688 0 10.08)" fill="url(#m)" stroke-width="3" stroke-linecap="round" stroke="#212121"/><path d="M412.71 32.393c5.917 0 10.583 4.75 10.583 10.582a10.544 10.544 0 0 1-10.582 10.583c-5.833 0-10.583-4.75-10.583-10.583 0-5.832 4.75-10.582 10.583-10.582zm0 0" transform="matrix(.04688 0 0 .04688 0 10.08)" fill="url(#n)" stroke-width="3" stroke-linecap="round" stroke="#212121"/><path d="M449.79 32.393c5.833 0 10.583 4.75 10.583 10.582 0 5.833-4.75 10.583-10.583 10.583-5.832 0-10.582-4.75-10.582-10.583 0-5.832 4.75-10.582 10.582-10.582zm0 0" transform="matrix(.04688 0 0 .04688 0 10.08)" fill="url(#o)" stroke-width="3" stroke-linecap="round" stroke="#212121"/></svg>
